travel-brand/products/presets/02_UM_Film_Faded.xmp
<?xpacket begin="ï»¿" id="W5M0MpCehiHzreSzNTczkc9d"?>
<x:xmpmeta xmlns:x="adobe:ns:meta/" x:xmptk="Adobe XMP Core 9.0">
  <rdf:RDF xmlns:rdf="http://www.w3.org/1999/02/22-rdf-syntax-ns#">
    <rdf:Description rdf:about=""
      xmlns:crs="http://ns.adobe.com/camera-raw-settings/1.0/"
      crs:Name="UM Film Faded"
      crs:UUID="2AEB3497-6384-44C0-879A-E3928B088A33"
      crs:SupportsAmount="False"
      crs:SupportsColor="True"
      crs:SupportsMonochrome="False"
      crs:SupportsHighDynamicRange="True"
      crs:SupportsNormalDynamicRange="True"
      crs:CameraModelRestriction=""
      crs:CopyrightInformation="UncleMarv Travel Brand — unclemarvtravel.com"
      crs:ProcessVersion="11.0"
      crs:WhiteBalance="Custom"
      crs:Temperature="5800"
      crs:Tint="+8"
      crs:Exposure2012="+0.10"
      crs:Contrast2012="-15"
      crs:Highlights2012="-20"
      crs:Shadows2012="+30"
      crs:Whites2012="-20"
      crs:Blacks2012="+25"
      crs:Clarity2012="-5"
      crs:Dehaze="0"
      crs:Vibrance="-25"
      crs:Saturation="-10"
      crs:HueAdjustmentRed="+5"
      crs:HueAdjustmentOrange="+8"
      crs:HueAdjustmentYellow="+5"
      crs:HueAdjustmentGreen="-5"
      crs:HueAdjustmentAqua="0"
      crs:HueAdjustmentBlue="+5"
      crs:SaturationAdjustmentRed="-15"
      crs:SaturationAdjustmentOrange="-10"
      crs:SaturationAdjustmentYellow="-15"
      crs:SaturationAdjustmentGreen="-20"
      crs:SaturationAdjustmentAqua="-15"
      crs:SaturationAdjustmentBlue="-10"
      crs:LuminanceAdjustmentOrange="+8"
      crs:LuminanceAdjustmentYellow="+5"
      crs:ColorGradeShadowHue="28"
      crs:ColorGradeShadowSat="18"
      crs:ColorGradeShadowLum="+3"
      crs:ColorGradeHighlightHue="45"
      crs:ColorGradeHighlightSat="15"
      crs:ColorGradeHighlightLum="0"
      crs:ColorGradeMidtoneHue="35"
      crs:ColorGradeMidtoneSat="6"
      crs:ColorGradeMidtoneLum="0"
      crs:ColorGradeBlending="50"
      crs:ColorGradeBalance="0"
      crs:ParametricShadows="+15"
      crs:ParametricDarks="+5"
      crs:ParametricLights="-5"
      crs:ParametricHighlights="-10"
    />
  </rdf:RDF>
</x:xmpmeta>
<?xpacket end="w"?>