travel-brand/products/presets/03_UM_Golden_Hour.xmp
<?xpacket begin="ï»¿" id="W5M0MpCehiHzreSzNTczkc9d"?>
<x:xmpmeta xmlns:x="adobe:ns:meta/" x:xmptk="Adobe XMP Core 9.0">
  <rdf:RDF xmlns:rdf="http://www.w3.org/1999/02/22-rdf-syntax-ns#">
    <rdf:Description rdf:about=""
      xmlns:crs="http://ns.adobe.com/camera-raw-settings/1.0/"
      crs:Name="UM Golden Hour"
      crs:UUID="EE1DF281-CF03-4E1E-9AC3-C07E428F4E65"
      crs:SupportsAmount="False"
      crs:SupportsColor="True"
      crs:SupportsMonochrome="False"
      crs:SupportsHighDynamicRange="True"
      crs:SupportsNormalDynamicRange="True"
      crs:CameraModelRestriction=""
      crs:CopyrightInformation="UncleMarv Travel Brand — unclemarvtravel.com"
      crs:ProcessVersion="11.0"
      crs:WhiteBalance="Custom"
      crs:Temperature="7000"
      crs:Tint="+10"
      crs:Exposure2012="+0.20"
      crs:Contrast2012="+10"
      crs:Highlights2012="-25"
      crs:Shadows2012="+20"
      crs:Whites2012="-10"
      crs:Blacks2012="-10"
      crs:Clarity2012="+10"
      crs:Dehaze="0"
      crs:Vibrance="+15"
      crs:Saturation="+5"
      crs:HueAdjustmentRed="+5"
      crs:HueAdjustmentOrange="+8"
      crs:HueAdjustmentYellow="+10"
      crs:HueAdjustmentGreen="-5"
      crs:HueAdjustmentAqua="-5"
      crs:SaturationAdjustmentRed="+5"
      crs:SaturationAdjustmentOrange="+25"
      crs:SaturationAdjustmentYellow="+20"
      crs:SaturationAdjustmentGreen="+5"
      crs:SaturationAdjustmentAqua="-5"
      crs:SaturationAdjustmentBlue="-10"
      crs:LuminanceAdjustmentOrange="+10"
      crs:LuminanceAdjustmentYellow="+8"
      crs:ColorGradeShadowHue="35"
      crs:ColorGradeShadowSat="22"
      crs:ColorGradeShadowLum="0"
      crs:ColorGradeHighlightHue="50"
      crs:ColorGradeHighlightSat="28"
      crs:ColorGradeHighlightLum="+3"
      crs:ColorGradeMidtoneHue="40"
      crs:ColorGradeMidtoneSat="12"
      crs:ColorGradeMidtoneLum="0"
      crs:ColorGradeBlending="50"
      crs:ColorGradeBalance="+15"
    />
  </rdf:RDF>
</x:xmpmeta>
<?xpacket end="w"?>