travel-brand/products/presets/04_UM_Cinematic.xmp
<?xpacket begin="ï»¿" id="W5M0MpCehiHzreSzNTczkc9d"?>
<x:xmpmeta xmlns:x="adobe:ns:meta/" x:xmptk="Adobe XMP Core 9.0">
  <rdf:RDF xmlns:rdf="http://www.w3.org/1999/02/22-rdf-syntax-ns#">
    <rdf:Description rdf:about=""
      xmlns:crs="http://ns.adobe.com/camera-raw-settings/1.0/"
      crs:Name="UM Cinematic"
      crs:UUID="BBBAA94A-13F8-4302-8CDF-B8ED988C1E66"
      crs:SupportsAmount="False"
      crs:SupportsColor="True"
      crs:SupportsMonochrome="False"
      crs:SupportsHighDynamicRange="True"
      crs:SupportsNormalDynamicRange="True"
      crs:CameraModelRestriction=""
      crs:CopyrightInformation="UncleMarv Travel Brand — unclemarvtravel.com"
      crs:ProcessVersion="11.0"
      crs:WhiteBalance="Custom"
      crs:Temperature="5600"
      crs:Tint="+5"
      crs:Exposure2012="-0.15"
      crs:Contrast2012="+20"
      crs:Highlights2012="-40"
      crs:Shadows2012="+15"
      crs:Whites2012="-20"
      crs:Blacks2012="-15"
      crs:Clarity2012="+20"
      crs:Dehaze="+5"
      crs:Vibrance="-10"
      crs:Saturation="-5"
      crs:HueAdjustmentOrange="+5"
      crs:HueAdjustmentAqua="-10"
      crs:HueAdjustmentBlue="-10"
      crs:SaturationAdjustmentRed="0"
      crs:SaturationAdjustmentOrange="+25"
      crs:SaturationAdjustmentYellow="-10"
      crs:SaturationAdjustmentGreen="-20"
      crs:SaturationAdjustmentAqua="+15"
      crs:SaturationAdjustmentBlue="+25"
      crs:LuminanceAdjustmentOrange="+5"
      crs:LuminanceAdjustmentBlue="+5"
      crs:ColorGradeShadowHue="195"
      crs:ColorGradeShadowSat="38"
      crs:ColorGradeShadowLum="0"
      crs:ColorGradeHighlightHue="30"
      crs:ColorGradeHighlightSat="22"
      crs:ColorGradeHighlightLum="0"
      crs:ColorGradeMidtoneHue="205"
      crs:ColorGradeMidtoneSat="10"
      crs:ColorGradeMidtoneLum="0"
      crs:ColorGradeBlending="50"
      crs:ColorGradeBalance="-10"
      crs:ParametricShadows="-8"
      crs:ParametricHighlights="-8"
    />
  </rdf:RDF>
</x:xmpmeta>
<?xpacket end="w"?>