travel-brand/products/presets/06_UM_Urban_Grit.xmp
<?xpacket begin="ï»¿" id="W5M0MpCehiHzreSzNTczkc9d"?>
<x:xmpmeta xmlns:x="adobe:ns:meta/" x:xmptk="Adobe XMP Core 9.0">
  <rdf:RDF xmlns:rdf="http://www.w3.org/1999/02/22-rdf-syntax-ns#">
    <rdf:Description rdf:about=""
      xmlns:crs="http://ns.adobe.com/camera-raw-settings/1.0/"
      crs:Name="UM Urban Grit"
      crs:UUID="5DF46B7C-69FA-42E3-A8AC-A33361C480DD"
      crs:SupportsAmount="False"
      crs:SupportsColor="True"
      crs:SupportsMonochrome="False"
      crs:SupportsHighDynamicRange="True"
      crs:SupportsNormalDynamicRange="True"
      crs:CameraModelRestriction=""
      crs:CopyrightInformation="UncleMarv Travel Brand — unclemarvtravel.com"
      crs:ProcessVersion="11.0"
      crs:WhiteBalance="Custom"
      crs:Temperature="5400"
      crs:Tint="0"
      crs:Exposure2012="-0.20"
      crs:Contrast2012="+35"
      crs:Highlights2012="-50"
      crs:Shadows2012="+5"
      crs:Whites2012="-25"
      crs:Blacks2012="-35"
      crs:Clarity2012="+30"
      crs:Dehaze="+5"
      crs:Vibrance="-30"
      crs:Saturation="-20"
      crs:HueAdjustmentOrange="0"
      crs:SaturationAdjustmentRed="-15"
      crs:SaturationAdjustmentOrange="-20"
      crs:SaturationAdjustmentYellow="-15"
      crs:SaturationAdjustmentGreen="-25"
      crs:SaturationAdjustmentAqua="-15"
      crs:SaturationAdjustmentBlue="-10"
      crs:ColorGradeShadowHue="220"
      crs:ColorGradeShadowSat="10"
      crs:ColorGradeShadowLum="0"
      crs:ColorGradeHighlightHue="35"
      crs:ColorGradeHighlightSat="5"
      crs:ColorGradeHighlightLum="0"
      crs:ColorGradeMidtoneHue="0"
      crs:ColorGradeMidtoneSat="0"
      crs:ColorGradeMidtoneLum="0"
      crs:ColorGradeBlending="50"
      crs:ColorGradeBalance="0"
      crs:ParametricShadows="-15"
      crs:ParametricHighlights="-10"
    />
  </rdf:RDF>
</x:xmpmeta>
<?xpacket end="w"?>