travel-brand/products/presets/07_UM_Airy_Travel.xmp
<?xpacket begin="ï»¿" id="W5M0MpCehiHzreSzNTczkc9d"?>
<x:xmpmeta xmlns:x="adobe:ns:meta/" x:xmptk="Adobe XMP Core 9.0">
  <rdf:RDF xmlns:rdf="http://www.w3.org/1999/02/22-rdf-syntax-ns#">
    <rdf:Description rdf:about=""
      xmlns:crs="http://ns.adobe.com/camera-raw-settings/1.0/"
      crs:Name="UM Airy Travel"
      crs:UUID="F64B6BEC-4E64-42F7-96D4-C9A9F2799930"
      crs:SupportsAmount="False"
      crs:SupportsColor="True"
      crs:SupportsMonochrome="False"
      crs:SupportsHighDynamicRange="True"
      crs:SupportsNormalDynamicRange="True"
      crs:CameraModelRestriction=""
      crs:CopyrightInformation="UncleMarv Travel Brand — unclemarvtravel.com"
      crs:ProcessVersion="11.0"
      crs:WhiteBalance="Custom"
      crs:Temperature="6000"
      crs:Tint="+5"
      crs:Exposure2012="+0.50"
      crs:Contrast2012="-10"
      crs:Highlights2012="-35"
      crs:Shadows2012="+35"
      crs:Whites2012="+15"
      crs:Blacks2012="+20"
      crs:Clarity2012="+5"
      crs:Dehaze="0"
      crs:Vibrance="+10"
      crs:Saturation="0"
      crs:HueAdjustmentOrange="+5"
      crs:HueAdjustmentYellow="+5"
      crs:SaturationAdjustmentOrange="+5"
      crs:SaturationAdjustmentYellow="0"
      crs:SaturationAdjustmentGreen="-5"
      crs:SaturationAdjustmentBlue="-5"
      crs:LuminanceAdjustmentOrange="+10"
      crs:LuminanceAdjustmentYellow="+8"
      crs:ColorGradeShadowHue="200"
      crs:ColorGradeShadowSat="10"
      crs:ColorGradeShadowLum="+5"
      crs:ColorGradeHighlightHue="50"
      crs:ColorGradeHighlightSat="10"
      crs:ColorGradeHighlightLum="+3"
      crs:ColorGradeMidtoneHue="40"
      crs:ColorGradeMidtoneSat="5"
      crs:ColorGradeMidtoneLum="0"
      crs:ColorGradeBlending="50"
      crs:ColorGradeBalance="+10"
      crs:ParametricShadows="+10"
      crs:ParametricHighlights="-8"
    />
  </rdf:RDF>
</x:xmpmeta>
<?xpacket end="w"?>