travel-brand/products/presets/08_UM_Black_Ice.xmp
<?xpacket begin="ï»¿" id="W5M0MpCehiHzreSzNTczkc9d"?>
<x:xmpmeta xmlns:x="adobe:ns:meta/" x:xmptk="Adobe XMP Core 9.0">
  <rdf:RDF xmlns:rdf="http://www.w3.org/1999/02/22-rdf-syntax-ns#">
    <rdf:Description rdf:about=""
      xmlns:crs="http://ns.adobe.com/camera-raw-settings/1.0/"
      crs:Name="UM Black Ice"
      crs:UUID="75A13DB3-D142-4303-9FD9-79A9F9826FAD"
      crs:SupportsAmount="False"
      crs:SupportsColor="True"
      crs:SupportsMonochrome="False"
      crs:SupportsHighDynamicRange="True"
      crs:SupportsNormalDynamicRange="True"
      crs:CameraModelRestriction=""
      crs:CopyrightInformation="UncleMarv Travel Brand — unclemarvtravel.com"
      crs:ProcessVersion="11.0"
      crs:WhiteBalance="Custom"
      crs:Temperature="6000"
      crs:Tint="0"
      crs:Exposure2012="0.00"
      crs:Contrast2012="+30"
      crs:Highlights2012="-30"
      crs:Shadows2012="+10"
      crs:Whites2012="+10"
      crs:Blacks2012="-30"
      crs:Clarity2012="+30"
      crs:Dehaze="+5"
      crs:Vibrance="0"
      crs:Saturation="0"
      crs:ConvertToGrayscale="True"
      crs:GrayMixerRed="+10"
      crs:GrayMixerOrange="+5"
      crs:GrayMixerYellow="0"
      crs:GrayMixerGreen="-5"
      crs:GrayMixerAqua="-10"
      crs:GrayMixerBlue="-15"
      crs:GrayMixerPurple="-5"
      crs:GrayMixerMagenta="0"
      crs:ParametricShadows="-15"
      crs:ParametricDarks="-5"
      crs:ParametricLights="+5"
      crs:ParametricHighlights="+10"
      crs:ColorGradeBlending="0"
      crs:ColorGradeBalance="0"
    />
  </rdf:RDF>
</x:xmpmeta>
<?xpacket end="w"?>