products/presets/01_UM_Dark_Moody.xmp
<?xpacket begin="ï»¿" id="W5M0MpCehiHzreSzNTczkc9d"?>
<x:xmpmeta xmlns:x="adobe:ns:meta/" x:xmptk="Adobe XMP Core 9.0">
  <rdf:RDF xmlns:rdf="http://www.w3.org/1999/02/22-rdf-syntax-ns#">
    <rdf:Description rdf:about=""
      xmlns:crs="http://ns.adobe.com/camera-raw-settings/1.0/"
      crs:Name="UM Dark Moody"
      crs:UUID="13ED10C0-1E33-4F05-B062-CE6C297E2FE7"
      crs:SupportsAmount="False"
      crs:SupportsColor="True"
      crs:SupportsMonochrome="False"
      crs:SupportsHighDynamicRange="True"
      crs:SupportsNormalDynamicRange="True"
      crs:CameraModelRestriction=""
      crs:CopyrightInformation="UncleMarv Travel Brand — unclemarvtravel.com"
      crs:ProcessVersion="11.0"
      crs:WhiteBalance="Custom"
      crs:Temperature="5100"
      crs:Tint="+5"
      crs:Exposure2012="-0.35"
      crs:Contrast2012="+25"
      crs:Highlights2012="-60"
      crs:Shadows2012="+10"
      crs:Whites2012="-30"
      crs:Blacks2012="-25"
      crs:Clarity2012="+15"
      crs:Dehaze="+5"
      crs:Vibrance="-20"
      crs:Saturation="-15"
      crs:HueAdjustmentRed="0"
      crs:HueAdjustmentOrange="-5"
      crs:HueAdjustmentYellow="0"
      crs:HueAdjustmentGreen="0"
      crs:HueAdjustmentAqua="+5"
      crs:HueAdjustmentBlue="+10"
      crs:HueAdjustmentPurple="0"
      crs:HueAdjustmentMagenta="0"
      crs:SaturationAdjustmentRed="-10"
      crs:SaturationAdjustmentOrange="-15"
      crs:SaturationAdjustmentYellow="-10"
      crs:SaturationAdjustmentGreen="-15"
      crs:SaturationAdjustmentAqua="+5"
      crs:SaturationAdjustmentBlue="+20"
      crs:SaturationAdjustmentPurple="-10"
      crs:SaturationAdjustmentMagenta="-10"
      crs:LuminanceAdjustmentBlue="+5"
      crs:LuminanceAdjustmentAqua="+5"
      crs:ColorGradeShadowHue="215"
      crs:ColorGradeShadowSat="28"
      crs:ColorGradeShadowLum="0"
      crs:ColorGradeHighlightHue="35"
      crs:ColorGradeHighlightSat="12"
      crs:ColorGradeHighlightLum="0"
      crs:ColorGradeMidtoneHue="220"
      crs:ColorGradeMidtoneSat="8"
      crs:ColorGradeMidtoneLum="0"
      crs:ColorGradeBlending="50"
      crs:ColorGradeBalance="-20"
      crs:ParametricShadows="-10"
      crs:ParametricDarks="-5"
      crs:ParametricLights="-5"
      crs:ParametricHighlights="-10"
    />
  </rdf:RDF>
</x:xmpmeta>
<?xpacket end="w"?>