products/presets/05_UM_Landscape.xmp
<?xpacket begin="ï»¿" id="W5M0MpCehiHzreSzNTczkc9d"?>
<x:xmpmeta xmlns:x="adobe:ns:meta/" x:xmptk="Adobe XMP Core 9.0">
  <rdf:RDF xmlns:rdf="http://www.w3.org/1999/02/22-rdf-syntax-ns#">
    <rdf:Description rdf:about=""
      xmlns:crs="http://ns.adobe.com/camera-raw-settings/1.0/"
      crs:Name="UM Landscape"
      crs:UUID="C9803536-FA21-4BB0-AD9D-82AAB5B04AAC"
      crs:SupportsAmount="False"
      crs:SupportsColor="True"
      crs:SupportsMonochrome="False"
      crs:SupportsHighDynamicRange="True"
      crs:SupportsNormalDynamicRange="True"
      crs:CameraModelRestriction=""
      crs:CopyrightInformation="UncleMarv Travel Brand — unclemarvtravel.com"
      crs:ProcessVersion="11.0"
      crs:WhiteBalance="Custom"
      crs:Temperature="6200"
      crs:Tint="+3"
      crs:Exposure2012="+0.10"
      crs:Contrast2012="+15"
      crs:Highlights2012="-30"
      crs:Shadows2012="+25"
      crs:Whites2012="-5"
      crs:Blacks2012="-10"
      crs:Clarity2012="+25"
      crs:Dehaze="+15"
      crs:Vibrance="+25"
      crs:Saturation="+5"
      crs:HueAdjustmentGreen="-10"
      crs:HueAdjustmentAqua="+5"
      crs:HueAdjustmentBlue="+5"
      crs:SaturationAdjustmentGreen="+20"
      crs:SaturationAdjustmentAqua="+25"
      crs:SaturationAdjustmentBlue="+25"
      crs:SaturationAdjustmentRed="0"
      crs:LuminanceAdjustmentBlue="+8"
      crs:LuminanceAdjustmentAqua="+5"
      crs:LuminanceAdjustmentGreen="+5"
      crs:ColorGradeShadowHue="220"
      crs:ColorGradeShadowSat="12"
      crs:ColorGradeShadowLum="0"
      crs:ColorGradeHighlightHue="210"
      crs:ColorGradeHighlightSat="8"
      crs:ColorGradeHighlightLum="0"
      crs:ColorGradeMidtoneHue="200"
      crs:ColorGradeMidtoneSat="5"
      crs:ColorGradeMidtoneLum="0"
      crs:ColorGradeBlending="50"
      crs:ColorGradeBalance="0"
      crs:ParametricHighlights="-10"
    />
  </rdf:RDF>
</x:xmpmeta>
<?xpacket end="w"?>